X:295
T: Diarmaid Lenihan's
T: Old Favorite
S: B.Breathnach: "Ceol Rince na hEireann" II/67 (gan ainm)
Z: B.Black
L: 1/8
M: 6/8
R: jig
K: G
A|B2B B2B|dBA G2A|Bdd d2e|ded dBA|
B2B BAB|dBA G2B|ded BAB|1 G3 G2 :|2 G3 G3||
g2g fg/f/f|ef/e/e edB|ded g2e|ded BAB|
g2g f2f|efe edB|d2d edB|G3 G3 :|
